X:24404
T:Keel Row Bb Brass
Q:1/4=132
K:F
M:2/4
L:1/8
R:Strathspey
U: R = ///
U: r = //
U: V = !accent!
V:M gstem=up stem=down name="Melody" sname="Melody" 
V:H gstem=up stem=down name="Harmony" sname="Harmony"
V:C gstem=up stem=down name="C-Harmony" sname="C-Harmony"
V:S gstem=up stem=down dyn=up stafflines=1 clef=perc middle=G name="Snare" sname="Snare" sname="Snare"
V:B gstem=up stem=down clef=none dyn=up name="Bass" sname="Bass"
V:T gstem=up stem=down clef=none dyn=up name="Tenor" sname="Tenor"
V:BB gstem=up stem=down name="Brass Chord 2" sname="ABCD-B" 
V:BC gstem=up stem=down name="Brass Bass" sname="ABCD-C" octave=-1 clef=Bass
V:BD gstem=up stem=down name="Brass Chord" sname="ABCD-D" 
V:P gstem=up stem=down name="Piano" octave=-1
[V:M]
[V:M][: A2 F>A | B2 G>B | A2 F>A | G>E C2 |   
[V:M]   A2 F>A | B2 G>B | A>F G>E | F2 F2 :]
[V:M][: c2 f2 | d2 c>B | A2 F>A |G>E C>B |
[V:M]   c2 f2 | d2 c>B | A>F G>E | F2 F2 :]
[V:BB]
%%MIDI program 1
[V:BB][: a4 | g4 | a4 | g2 g2 | 
[V:BB]   a2 f2 | f4 | a2 b2 | a2 a2 :]
[V:BB][: a2 a2 | b2 b2 | a2 a2 | g2 g2 |
[V:BB]   a2 a2 | b4 | a2 b2 | a2 a2 :]
[V:BC]
%%MIDI program 1
[V:BC][: F4 | E4 | F4 | E2 E2 | 
[V:BC]   F2 _E2 | D4 |  F2 E2 | F4 :]
[V:BC][: F2 F2 | F4 | F2 F2 | E2 E2 | 
[V:BC]   F2 F2 | F4 | F2 E2 | F4  :]
[V:BD]
%%MIDI program 1
[V:BD][: C4 | C4|  C4|  C2 C2 | 
[V:BD]   C2 C2 | B4 | C2 C2| C4 :]
[V:BD][: C2 C2 | D4 | C2 C2 | C2 C2 |
[V:BD]   C2 C2 | D4 | C2 C2 | C2 C2 :]

